!! 00000] TT[WS
!!!OTL: Dong bing
!!!ARE: Asia, China, Shanxi Wutai
!! Ethnic Group: Han
!! WII, 110 (1)
!!!SCT: J0564
!!!YEM: Copyright 1995, estate of Helmut Schaffrath.
**kern
*ICvox
*Ivox
*M2/4
*k[f#]
*G:
{8b
8dd
8ee
8ee
=1
8gg
8ee
4dd
=2
8b
8dd
8ee
8ee
=3
2dd}
=4
{8b
8dd
8ee
8ee
=5
8gg
8ee
8dd
8dd
=6
8gg
8ee
8dd
8b
=7
4a
4dd
=8
8a
4g
8e
=9
4e
4r}
=10
{8dd
8b
8a
8dd
=11
4g
4r
=12
8dd
8b
8a
8dd
=13
4g
4dd
=14
8a
8a
8a
8e
=15
2d}
==
!!!AGN: Xiaodiao. Qingge, Sichun
!!!ONB: ESAC (Essen Associative Code) Database: CHINA
!!!AMT: simple duple
!!!AIN: vox
!!!EED: Helmut Schaffrath
!!!EEV: 1.0
*-
